X: 40156
T: Tim Hobin's
R: jig
M: 6/8
K: Adorian
|:A2a age|~A3 ~g3|A2a age|cec BAG|
ABG ~a3|~A3 ~g3|d2f gfe|edc BAG:|
|:a2b c'ba|bag ~a3|ece ~a3|agb age|
ede ~a3|bag gfe|def gfe|edc BAG:|
|:cBA BAG|AB/c/d ecA|c2c BAG|gfe dcB|
cBA BAG|AB/c/d ecA|def gfe|edc BAG:|

